src/assets/images/arrows/arrow--tabs.svg

<svg width="24" height="8" viewBox="0 0 24 8" fill="none" xmlns="http://www.w3.org/2000/svg">
<path d="M0 4H24" stroke="#FFC803" stroke-width="2"/>
<path d="M23 4L23.1031 4.99467L23.1031 3.00533L23 4ZM22.8969 3.00533C20.844 3.21816 19.216 4.8422 19.0052 6.89799L20.9948 7.10201C21.1087 5.99126 21.9898 5.11009 23.1031 4.99467L22.8969 3.00533ZM19.0052 1.10201C19.216 3.1578 20.844 4.78184 22.8969 4.99467L23.1031 3.00533C21.9898 2.88991 21.1087 2.00874 20.9948 0.897993L19.0052 1.10201Z" fill="#FFC803"/>
</svg>

<svg width="24" height="8" fill="none" xmlns="http://www.w3.org/2000/svg"><path d="M0 4h24" stroke="#FFC803" stroke-width="2"/><path d="M23 4l.103.995v-1.99L23 4zm-.103-.995a4.364 4.364 0 00-3.892 3.893l1.99.204a2.364 2.364 0 012.108-2.107l-.206-1.99zm-3.892-1.903a4.364 4.364 0 003.892 3.893l.206-1.99A2.364 2.364 0 0120.995.898l-1.99.204z" fill="#FFC803"/></svg>
